public/star-1.svg

<svg width="212" height="303" viewBox="0 0 212 303" fill="none" xmlns="http://www.w3.org/2000/svg">
<style>
  @keyframes blink-animation {
    to { opacity: 1; transform: scale(1.01); }
  }

  .blink {
    animation: blink-animation 1.5s infinite alternate;
    opacity: .3;
  }

  .blink-2 {
    animation: blink-animation 1s infinite alternate;
    opacity: .3;
  }

  .blink-3 {
    animation: blink-animation 2s infinite alternate;
    opacity: .3;
  }
</style>
<path class="blink" d="M167.395 255.276C169.601 255.155 171.838 253.628 172.409 251.742L172.409 251.742L172.432 251.743C172.884 253.599 174.911 255.219 177.007 255.617L177.003 255.73C174.858 256.012 172.76 257.476 172.171 259.247L172.148 259.246C171.755 257.03 169.606 255.632 167.393 255.321L167.395 255.276Z" fill="#CB9470"/>
<path class="blink-2" d="M139.16 260.438C141.367 260.317 143.604 258.79 144.175 256.905L144.175 256.904L144.197 256.905C144.649 258.761 146.676 260.381 148.773 260.779L148.768 260.892C146.624 261.174 144.525 262.638 143.936 264.409L143.913 264.408C143.52 262.192 141.371 260.794 139.158 260.483L139.16 260.438Z" fill="#CB9470"/>
<path class="blink-3" d="M101.24 233.409C103.382 233.292 105.555 231.809 106.109 229.979L106.109 229.979L106.131 229.979C106.57 231.782 108.538 233.355 110.574 233.741L110.569 233.851C108.487 234.125 106.449 235.546 105.877 237.266L105.855 237.265C105.474 235.113 103.387 233.755 101.238 233.453L101.24 233.409Z" fill="#CB9470"/>
<path class="blink-2" d="M37.0969 199.544C40.3108 199.368 43.5693 197.144 44.4006 194.398L44.4006 194.398L44.4338 194.399C45.0919 197.102 48.0445 199.462 51.0977 200.041L51.0915 200.206C47.9678 200.617 44.9112 202.749 44.0531 205.329L44.0199 205.328C43.4478 202.099 40.3177 200.063 37.0944 199.61L37.0969 199.544Z" fill="#CB9470"/>
<path class="blink-3" d="M18.1349 206.656C19.9647 206.556 21.8199 205.29 22.2932 203.726L22.2932 203.726L22.3121 203.727C22.6867 205.266 24.3678 206.61 26.1061 206.939L26.1025 207.033C24.3241 207.267 22.5838 208.481 22.0953 209.95L22.0764 209.949C21.7507 208.111 19.9687 206.952 18.1335 206.694L18.1349 206.656Z" fill="#CB9470"/>
<path class="blink-2" d="M159.11 165.502C161.253 165.385 163.425 163.902 163.979 162.071L163.979 162.071L164.001 162.072C164.44 163.874 166.408 165.447 168.444 165.833L168.44 165.943C166.357 166.217 164.32 167.639 163.748 169.359L163.725 169.358C163.344 167.205 161.257 165.848 159.108 165.546L159.11 165.502Z" fill="#CB9470"/>
<path class="blink" d="M176.147 44.6433C178.29 44.5261 180.462 43.0433 181.016 41.2126L181.016 41.2125L181.038 41.2133C181.477 43.0154 183.445 44.5888 185.481 44.9745L185.477 45.0845C183.394 45.3584 181.356 46.7801 180.784 48.4999L180.762 48.4991C180.381 46.3464 178.294 44.989 176.145 44.6873L176.147 44.6433Z" fill="#CB9470"/>
<path class="blink-2" d="M201.889 23.0305C204.032 22.9133 206.204 21.4305 206.758 19.5998L206.758 19.5997L206.78 19.6005C207.219 21.4026 209.187 22.976 211.223 23.3617L211.219 23.4717C209.136 23.7456 207.098 25.1673 206.526 26.8871L206.504 26.8863C206.123 24.7337 204.036 23.3763 201.887 23.0745L201.889 23.0305Z" fill="#CB9470"/>
<path class="blink-3" d="M190.718 9.50827C192.325 9.42037 193.954 8.30826 194.369 6.93525L194.369 6.93516L194.386 6.93579C194.715 8.28736 196.191 9.46739 197.718 9.75666L197.715 9.83922C196.153 10.0446 194.625 11.1109 194.196 12.4007L194.179 12.4001C193.893 10.7857 192.328 9.7676 190.716 9.54126L190.718 9.50827Z" fill="#CB9470"/>
<path class="blink" d="M162.741 234.18C164.884 234.062 167.056 232.58 167.61 230.749L167.61 230.749L167.632 230.75C168.071 232.552 170.04 234.125 172.075 234.511L172.071 234.621C169.988 234.895 167.951 236.316 167.379 238.036L167.357 238.035C166.975 235.883 164.888 234.525 162.74 234.224L162.741 234.18Z" fill="#CB9470"/>
<path class="blink-2" d="M182.236 301.625C181.999 301.699 181.843 301.693 181.768 301.607C181.524 299.827 181.222 298.487 180.864 297.588C180.508 296.689 179.869 296.011 178.948 295.555C178.028 295.097 177.045 294.744 176 294.495C174.954 294.243 173.89 294.014 172.802 293.805C171.504 293.398 171.127 293.615 169.179 293.541C169.105 293.453 169.073 293.24 169.086 292.905C170.338 292.867 171.59 292.852 172.838 292.857C181.183 292.881 182.24 287.617 182.551 287.09C182.761 286.586 183.072 285.703 183.091 285.213C183.113 284.623 183.191 284.667 183.32 285.348C183.275 286.549 183.04 287.094 183.337 288.005L183.327 288.258C183.542 288.771 184.045 289.424 184.836 290.212C185.627 291.002 186.947 291.725 188.797 292.386C193.729 293.647 193.801 293.714 194.607 293.745C194.996 293.759 195.384 293.816 195.772 293.915L195.748 294.547C194.91 294.516 194.824 294.638 193.988 294.607C190.927 294.74 189.981 294.363 188.112 295.017C186.612 295.466 185.276 296.153 184.107 297.079C182.941 298.003 182.357 299.479 182.358 301.503C182.281 301.5 182.239 301.54 182.236 301.625Z" fill="#CB9470"/>
<path class="blink" d="M159.705 194.089C159.552 194.137 159.452 194.133 159.403 194.078C159.246 192.931 159.052 192.067 158.821 191.487C158.592 190.908 158.18 190.471 157.587 190.177C156.993 189.882 156.36 189.655 155.686 189.494C155.013 189.332 154.327 189.184 153.626 189.049C152.789 188.787 152.546 188.927 151.291 188.88C151.243 188.823 151.223 188.686 151.231 188.469C152.038 188.446 152.844 188.435 153.649 188.439C159.027 188.454 159.708 185.062 159.908 184.722C160.043 184.398 160.244 183.829 160.256 183.513C160.27 183.132 160.32 183.161 160.404 183.6C160.375 184.374 160.224 184.725 160.415 185.312L160.409 185.475C160.547 185.806 160.871 186.226 161.381 186.734C161.89 187.243 162.741 187.709 163.934 188.135C167.112 188.948 167.158 188.991 167.677 189.011C167.928 189.02 168.178 189.057 168.429 189.121L168.413 189.528C167.873 189.508 167.818 189.587 167.279 189.566C165.306 189.652 164.696 189.41 163.492 189.831C162.525 190.12 161.664 190.563 160.911 191.159C160.159 191.755 159.783 192.706 159.784 194.011C159.734 194.009 159.707 194.035 159.705 194.089Z" fill="#CB9470"/>
<path class="blink-2" d="M171.604 85.4981C171.451 85.5457 171.351 85.5419 171.303 85.4867C171.145 84.3397 170.951 83.4761 170.72 82.8962C170.491 82.3173 170.079 81.8801 169.486 81.5864C168.893 81.2913 168.259 81.0639 167.586 80.9031C166.912 80.7412 166.226 80.5932 165.525 80.4584C164.688 80.1963 164.445 80.3362 163.19 80.2887C163.143 80.2319 163.122 80.0946 163.13 79.8784C163.937 79.8544 164.744 79.8443 165.548 79.8479C170.926 79.8633 171.607 76.4707 171.808 76.131C171.942 75.8068 172.143 75.2378 172.155 74.9217C172.17 74.5412 172.22 74.57 172.303 75.0087C172.274 75.7825 172.123 76.1338 172.314 76.721L172.308 76.8837C172.446 77.2148 172.77 77.6352 173.28 78.1433C173.789 78.6521 174.64 79.1182 175.833 79.5443C179.011 80.3567 179.057 80.4 179.576 80.4197C179.827 80.4292 180.078 80.4656 180.328 80.5296L180.312 80.937C179.772 80.9165 179.717 80.9958 179.178 80.9754C177.205 81.0611 176.595 80.8185 175.391 81.2395C174.424 81.5291 173.564 81.9716 172.81 82.5683C172.058 83.1639 171.682 84.1153 171.683 85.4196C171.633 85.4177 171.606 85.4436 171.604 85.4981Z" fill="#CB9470"/>
<path class="blink-3" d="M176.262 29.5891C176.111 29.6425 176.011 29.6425 175.96 29.5891C175.76 28.4489 175.533 27.5933 175.28 27.0226C175.029 26.4527 174.601 26.0314 173.997 25.7604C173.393 25.488 172.752 25.2846 172.072 25.1495C171.393 25.0131 170.702 24.8912 169.997 24.783C169.151 24.5527 168.913 24.7017 167.657 24.7017C167.607 24.6468 167.581 24.5104 167.581 24.294C168.387 24.2396 169.192 24.1989 169.997 24.1721C175.371 23.9841 175.923 20.5681 176.111 20.2211C176.233 19.892 176.413 19.3157 176.413 18.9994C176.413 18.6187 176.464 18.6456 176.564 19.0809C176.564 19.8552 176.426 20.2119 176.639 20.7914V20.9543C176.79 21.2799 177.13 21.6878 177.658 22.1762C178.187 22.6653 179.055 23.099 180.262 23.4796C183.469 24.1713 183.517 24.2128 184.036 24.2128C184.288 24.2128 184.539 24.2397 184.791 24.2942V24.7019C184.25 24.7019 184.198 24.7831 183.659 24.7831C181.691 24.9434 181.073 24.7241 179.885 25.1904C178.93 25.5163 178.087 25.991 177.356 26.6159C176.628 27.2394 176.288 28.2043 176.337 29.5077C176.288 29.5077 176.262 29.5346 176.262 29.5891Z" fill="#CB9470"/>
<path class="blink-2" d="M206.063 48.6578C205.986 48.6818 205.936 48.6799 205.912 48.6521C205.833 48.0757 205.735 47.6417 205.619 47.3503C205.504 47.0594 205.297 46.8397 204.999 46.6921C204.7 46.5438 204.382 46.4295 204.044 46.3488C203.705 46.2674 203.36 46.193 203.008 46.1252C202.588 45.9935 202.466 46.0638 201.835 46.04C201.811 46.0114 201.8 45.9424 201.805 45.8338C202.21 45.8217 202.615 45.8166 203.02 45.8185C205.722 45.8262 206.064 44.1213 206.165 43.9506C206.233 43.7877 206.334 43.5017 206.34 43.3429C206.347 43.1517 206.372 43.1662 206.414 43.3866C206.4 43.7755 206.324 43.952 206.42 44.2471L206.417 44.3288C206.486 44.4952 206.649 44.7065 206.905 44.9618C207.161 45.2175 207.589 45.4518 208.188 45.6659C209.785 46.0742 209.808 46.0959 210.069 46.1058C210.196 46.1106 210.321 46.1289 210.447 46.161L210.439 46.3658C210.168 46.3555 210.14 46.3953 209.869 46.385C208.878 46.4281 208.571 46.3062 207.966 46.5178C207.48 46.6633 207.048 46.8857 206.669 47.1856C206.291 47.4849 206.102 47.9629 206.103 48.6184C206.078 48.6175 206.064 48.6305 206.063 48.6578Z" fill="#CB9470"/>
<path class="blink-3" d="M7.18229 198.461C7.11995 198.485 7.07917 198.484 7.05957 198.456C6.99958 197.884 6.92357 197.453 6.83155 197.164C6.74016 196.875 6.57406 196.658 6.33355 196.513C6.09306 196.368 5.83601 196.256 5.56226 196.178C5.28847 196.1 5.00977 196.028 4.72489 195.963C4.38517 195.835 4.28572 195.906 3.77473 195.887C3.75567 195.858 3.74769 195.79 3.75178 195.682C4.08046 195.667 4.40887 195.659 4.73651 195.658C6.92593 195.647 7.21505 193.949 7.29801 193.778C7.3541 193.616 7.43786 193.33 7.44384 193.172C7.45104 192.982 7.47128 192.996 7.50376 193.215C7.48911 193.602 7.42639 193.778 7.50214 194.071L7.49906 194.153C7.55429 194.318 7.68469 194.527 7.89036 194.779C8.09609 195.031 8.44091 195.261 8.92492 195.47C10.216 195.865 10.2347 195.887 10.4461 195.895C10.5482 195.898 10.65 195.916 10.7516 195.947L10.7439 196.151C10.5239 196.142 10.5012 196.182 10.2818 196.174C9.47831 196.223 9.23096 196.104 8.73918 196.319C8.34443 196.467 7.99247 196.691 7.68367 196.992C7.37548 197.293 7.21904 197.77 7.21456 198.422C7.19439 198.421 7.18332 198.434 7.18229 198.461Z" fill="#CB9470"/>
<path d="M177.858 287.502L147.99 263.784" stroke="#CB9470" stroke-width="0.8"/>
<path d="M140.074 256.864L110.463 236.661" stroke="#CB9470" stroke-width="0.8"/>
<path d="M101.336 230.863L51.3649 203.269" stroke="#CB9470" stroke-width="0.8"/>
<path d="M34.0715 197.162L10.8125 194.335" stroke="#CB9470" stroke-width="0.8"/>
<path d="M18.2073 204.74L9.88754 198.194" stroke="#CB9470" stroke-width="0.8"/>
<path d="M27.8703 206.663L36.9764 202.724" stroke="#CB9470" stroke-width="0.8"/>
<path d="M181.864 284.538L172.666 260.045" stroke="#CB9470" stroke-width="0.8"/>
<path d="M170.268 251.387L168.376 239.632" stroke="#CB9470" stroke-width="0.8"/>
<path d="M166.411 229.822L160.259 196.876" stroke="#CB9470" stroke-width="0.8"/>
<path d="M160.459 181.306L162.83 170.103" stroke="#CB9470" stroke-width="0.8"/>
<path d="M164.365 160.425L171.006 87.852" stroke="#CB9470" stroke-width="0.8"/>
<path d="M173.929 72.3853L179.045 50.3812" stroke="#CB9470" stroke-width="0.8"/>
<path d="M178.635 40.6298L175.459 31.942" stroke="#CB9470" stroke-width="0.8"/>
<path d="M185.011 47.1023L202.121 47.75" stroke="#CB9470" stroke-width="0.8"/>
<path d="M207.772 42.5117L208.331 27.7344" stroke="#CB9470" stroke-width="0.8"/>
<path d="M205.155 19.0466L198.839 11.0188" stroke="#CB9470" stroke-width="0.8"/>
<path d="M178.697 18.4346L189.55 9.49897" stroke="#CB9470" stroke-width="0.8"/>
</svg>

<svg xmlns="http://www.w3.org/2000/svg" width="212" height="303" fill="none"><path fill="#CB9470" d="M167.395 255.276c2.206-.121 4.443-1.648 5.014-3.534l.023.001c.452 1.856 2.479 3.476 4.575 3.874l-.004.113c-2.145.282-4.243 1.746-4.832 3.517l-.023-.001c-.393-2.216-2.542-3.614-4.755-3.925l.002-.045ZM139.16 260.438c2.207-.121 4.444-1.648 5.015-3.533v-.001l.022.001c.452 1.856 2.479 3.476 4.576 3.874l-.005.113c-2.144.282-4.243 1.746-4.832 3.517l-.023-.001c-.393-2.216-2.542-3.614-4.755-3.925l.002-.045ZM101.24 233.409c2.142-.117 4.315-1.6 4.869-3.43h.022c.439 1.803 2.407 3.376 4.443 3.762l-.005.11c-2.082.274-4.12 1.695-4.692 3.415l-.022-.001c-.381-2.152-2.468-3.51-4.617-3.812l.002-.044ZM37.097 199.544c3.214-.176 6.472-2.4 7.304-5.146l.033.001c.658 2.703 3.61 5.063 6.664 5.642l-.006.165c-3.124.411-6.18 2.543-7.039 5.123l-.033-.001c-.572-3.229-3.702-5.265-6.926-5.718l.003-.066ZM18.135 206.656c1.83-.1 3.685-1.366 4.158-2.93l.02.001c.374 1.539 2.055 2.883 3.793 3.212l-.004.094c-1.778.234-3.518 1.448-4.007 2.917l-.019-.001c-.325-1.838-2.107-2.997-3.942-3.255v-.038ZM159.11 165.502c2.143-.117 4.315-1.6 4.869-3.431l.022.001c.439 1.802 2.407 3.375 4.443 3.761l-.004.11c-2.083.274-4.12 1.696-4.692 3.416l-.023-.001c-.381-2.153-2.468-3.51-4.617-3.812l.002-.044ZM176.147 44.643c2.143-.117 4.315-1.6 4.869-3.43h.022c.439 1.802 2.407 3.376 4.443 3.761l-.004.11c-2.083.274-4.121 1.696-4.693 3.416h-.022c-.381-2.154-2.468-3.511-4.617-3.813l.002-.044ZM201.889 23.03c2.143-.117 4.315-1.6 4.869-3.43h.022c.439 1.803 2.407 3.376 4.443 3.762l-.004.11c-2.083.274-4.121 1.695-4.693 3.415h-.022c-.381-2.153-2.468-3.51-4.617-3.813l.002-.044ZM190.718 9.508c1.607-.088 3.236-1.2 3.651-2.573h.017c.329 1.352 1.805 2.532 3.332 2.822l-.003.082c-1.562.206-3.09 1.272-3.519 2.562h-.017c-.286-1.615-1.851-2.633-3.463-2.86l.002-.033ZM162.741 234.18c2.143-.118 4.315-1.6 4.869-3.431l.022.001c.439 1.802 2.408 3.375 4.443 3.761l-.004.11c-2.083.274-4.12 1.695-4.692 3.415l-.022-.001c-.382-2.152-2.469-3.51-4.617-3.811l.001-.044ZM182.236 301.625c-.237.074-.393.068-.468-.018-.244-1.78-.546-3.12-.904-4.019-.356-.899-.995-1.577-1.916-2.033a13.733 13.733 0 0 0-2.948-1.06 70.112 70.112 0 0 0-3.198-.69c-1.298-.407-1.675-.19-3.623-.264-.074-.088-.106-.301-.093-.636 1.252-.038 2.504-.053 3.752-.048 8.345.024 9.402-5.24 9.713-5.767.21-.504.521-1.387.54-1.877.022-.59.1-.546.229.135-.045 1.201-.28 1.746.017 2.657l-.01.253c.215.513.718 1.166 1.509 1.954.791.79 2.111 1.513 3.961 2.174 4.932 1.261 5.004 1.328 5.81 1.359a5.5 5.5 0 0 1 1.165.17l-.024.632c-.838-.031-.924.091-1.76.06-3.061.133-4.007-.244-5.876.41a11.857 11.857 0 0 0-4.005 2.062c-1.166.924-1.75 2.4-1.749 4.424-.077-.003-.119.037-.122.122ZM159.705 194.089c-.153.048-.253.044-.302-.011-.157-1.147-.351-2.011-.582-2.591-.229-.579-.641-1.016-1.234-1.31a8.908 8.908 0 0 0-1.901-.683 45.836 45.836 0 0 0-2.06-.445c-.837-.262-1.08-.122-2.335-.169-.048-.057-.068-.194-.06-.411a72.27 72.27 0 0 1 2.418-.03c5.378.015 6.059-3.377 6.259-3.717.135-.324.336-.893.348-1.209.014-.381.064-.352.148.087-.029.774-.18 1.125.011 1.712l-.006.163c.138.331.462.751.972 1.259.509.509 1.36.975 2.553 1.401 3.178.813 3.224.856 3.743.876.251.009.501.046.752.11l-.016.407c-.54-.02-.595.059-1.134.038-1.973.086-2.583-.156-3.787.265a7.64 7.64 0 0 0-2.581 1.328c-.752.596-1.128 1.547-1.127 2.852-.05-.002-.077.024-.079.078ZM171.604 85.498c-.153.048-.253.044-.301-.011-.158-1.147-.352-2.01-.583-2.59-.229-.58-.641-1.017-1.234-1.31a8.884 8.884 0 0 0-1.9-.684c-.674-.162-1.36-.31-2.061-.445-.837-.262-1.08-.122-2.335-.17-.047-.056-.068-.193-.06-.41a70.732 70.732 0 0 1 2.418-.03c5.378.015 6.059-3.377 6.26-3.717.134-.324.335-.893.347-1.21.015-.38.065-.351.148.088-.029.773-.18 1.125.011 1.712l-.006.163c.138.33.462.751.972 1.26.509.508 1.36.974 2.553 1.4 3.178.813 3.224.856 3.743.876.251.01.502.046.752.11l-.016.407c-.54-.02-.595.059-1.134.038-1.973.086-2.583-.156-3.787.265a7.65 7.65 0 0 0-2.581 1.328c-.752.596-1.128 1.547-1.127 2.852-.05-.002-.077.024-.079.078ZM176.262 29.59c-.151.052-.251.052-.302 0-.2-1.141-.427-1.997-.68-2.567-.251-.57-.679-.992-1.283-1.263a8.865 8.865 0 0 0-1.925-.61 45.834 45.834 0 0 0-2.075-.367c-.846-.23-1.084-.081-2.34-.081-.05-.055-.076-.192-.076-.408a70.9 70.9 0 0 1 2.416-.122c5.374-.188 5.926-3.604 6.114-3.95.122-.33.302-.906.302-1.223 0-.38.051-.353.151.082 0 .774-.138 1.13.075 1.71v.163c.151.326.491.734 1.019 1.222.529.49 1.397.923 2.604 1.304 3.207.691 3.255.733 3.774.733.252 0 .503.027.755.081v.408c-.541 0-.593.081-1.132.081-1.968.16-2.586-.059-3.774.407-.955.326-1.798.801-2.529 1.426-.728.623-1.068 1.588-1.019 2.892-.049 0-.075.027-.075.081ZM206.063 48.658c-.077.024-.127.022-.151-.006-.079-.576-.177-1.01-.293-1.302a1.22 1.22 0 0 0-.62-.658 4.483 4.483 0 0 0-.955-.343 23.35 23.35 0 0 0-1.036-.224c-.42-.132-.542-.061-1.173-.085-.024-.029-.035-.098-.03-.206.405-.012.81-.017 1.215-.016 2.702.008 3.044-1.697 3.145-1.867.068-.163.169-.45.175-.608.007-.191.032-.177.074.044-.014.389-.09.565.006.86l-.003.082c.069.166.232.377.488.633.256.255.684.49 1.283.704 1.597.408 1.62.43 1.881.44.127.005.252.023.378.055l-.008.205c-.271-.01-.299.03-.57.019-.991.043-1.298-.079-1.903.133a3.843 3.843 0 0 0-1.297.668c-.378.299-.567.777-.566 1.432-.025 0-.039.012-.04.04ZM7.182 198.461c-.062.024-.103.023-.122-.005-.06-.572-.136-1.003-.228-1.292a1.126 1.126 0 0 0-.498-.651 3.17 3.17 0 0 0-.772-.335c-.274-.078-.552-.15-.837-.215-.34-.128-.44-.057-.95-.076-.02-.029-.027-.097-.023-.205.328-.015.657-.023.985-.024 2.189-.011 2.478-1.709 2.561-1.88.056-.162.14-.448.146-.606.007-.19.027-.176.06.043-.015.387-.078.563-.002.856l-.003.082c.055.165.186.374.391.626.206.252.55.482 1.035.691 1.291.395 1.31.417 1.521.425.102.003.204.021.306.052l-.008.204c-.22-.009-.243.031-.462.023-.804.049-1.051-.07-1.543.145a3.014 3.014 0 0 0-1.055.673c-.309.301-.465.778-.47 1.43-.02-.001-.03.012-.032.039Z"/><path stroke="#CB9470" stroke-width=".8" d="m177.858 287.502-29.868-23.718M140.074 256.864l-29.611-20.203M101.336 230.863l-49.971-27.594M34.072 197.162l-23.26-2.827M18.207 204.74l-8.32-6.546M27.87 206.663l9.106-3.939M181.864 284.538l-9.198-24.493M170.268 251.387l-1.892-11.755M166.411 229.822l-6.152-32.946M160.459 181.306l2.371-11.203M164.365 160.425l6.641-72.573M173.929 72.385l5.116-22.004M178.635 40.63l-3.176-8.688M185.011 47.102l17.11.648M207.772 42.512l.559-14.778M205.155 19.047l-6.316-8.028M178.697 18.435l10.853-8.936"/></svg>
